X: 10
T: The Congress
R: reel
M: 4/4
L: 1/8
K: Edor
|:(3FGA|BEED E2 (3FGA|Beec dBAd|BE E2 DE E2|FEDE FE (3FGA |
BEED E2 (3FGA|Beec dBAF|G3A B3A|GEFD E2 (3FGA:||
|:Beed e3d|Beed B2 Ad|B2 Ad B2 Ad|Beec dBAd|
Beed e3d|Beed B2 AF|G3A B3A|GEFD E2 (3FGA:||


Tune 208	Setting 12874

